src/assets/imgs/platform-4.svg

<svg width="71" height="74" viewBox="0 0 71 74" fill="none" xmlns="http://www.w3.org/2000/svg">
<path d="M70.7592 19.9899C68.7423 20.9203 65.2487 25.2494 65.2487 25.2494C64.8799 25.1369 64.3688 25.0739 63.7805 25.047V11.939C63.7805 9.9429 62.1426 8.32482 60.1188 8.32482H43.1411C42.9936 7.52015 42.8136 6.8099 42.5803 6.36951C42.5803 6.36951 46.3158 2.23838 46.9024 0.116547C46.9024 0.116547 46.7754 -1.39836 41.0453 6.49525L41.0419 8.32482H14.9571C12.935 8.32482 11.2954 9.94304 11.2954 11.9392V21.3971L8.50836 22.4805C8.50836 22.4805 8.19793 23.5772 11.2954 23.029V36.0157C8.2168 39.5441 3.7524 44.7367 3.27904 45.7075C2.55013 47.1953 1.74919 52.9269 0.811035 54.1944C0.811035 54.1944 2.42838 55.0257 4.59111 45.9817L11.2954 39.2656V56.5183C11.2954 58.5147 12.935 60.1326 14.9571 60.1326H40.3987L32.6053 69.2714C23.6834 72.2387 24.6714 73.7488 24.6714 73.7488C25.8599 72.7105 31.5677 71.384 33.0067 70.5298C34.1043 69.8825 40.6268 63.2163 43.618 60.1326H56.157C56.4297 60.5147 56.7487 60.3708 56.7487 60.3708L56.8001 60.1326H60.1188C62.1426 60.1326 63.7805 58.5144 63.7805 56.5182V27.0384L65.3756 26.7641C72.2977 19.8592 70.7592 19.9899 70.7592 19.9899ZM48.5883 9.45758C50.691 9.35411 51.6754 9.27772 51.8075 10.896C51.8075 10.896 48.6689 10.4238 46.3929 11.7141C46.3929 11.7141 46.4838 9.55639 48.5883 9.45758ZM19.3923 48.0806C18.8281 47.6131 18.4953 47.2625 18.4953 47.2625C18.3272 46.8845 18.1729 46.5161 18.0168 46.1474C17.5795 45.3924 17.2845 44.6371 17.1713 43.9046C10.7431 25.0381 26.124 20.3091 35.3786 18.4435C35.5519 19.6304 36.4043 23.9998 39.8791 27.5553L39.6612 27.3889L23.373 51.8972C21.9889 50.7687 20.55 49.456 19.3923 48.0806ZM28.3108 55.4347C28.3108 55.4347 26.0383 54.0455 23.5377 52.0276L42.9988 29.9871C45.6092 31.529 49.0891 32.5586 53.7524 32.4641C53.7524 32.4641 53.7713 32.7784 53.797 32.5989C53.7884 41.8008 52.7542 61.6111 28.3108 55.4347ZM54.9822 31.0572C37.9016 31.4033 36.5689 16.7264 36.5689 16.7264C43.786 14.5236 47.8405 17.522 50.5915 19.509C56.3302 23.667 54.9822 31.0572 54.9822 31.0572ZM57.1226 22.3588C56.3851 24.8853 59.1258 21.563 46.0002 14.0066L46.146 13.6512C46.146 13.6512 51.0288 12.0915 54.6906 14.9773C57.9064 17.5219 57.86 19.8324 57.1226 22.3588ZM59.3899 20.8934C60.2097 18.4391 59.1172 15.4945 59.1172 15.4945C60.7534 15.2968 60.8666 16.2632 61.1942 18.3175C61.5132 20.372 59.3899 20.8934 59.3899 20.8934Z" fill="#8A8A8E"/>
</svg>

<svg width="71" height="74" fill="none" xmlns="http://www.w3.org/2000/svg"><path d="M70.76 19.99c-2.018.93-5.511 5.26-5.511 5.26-.37-.113-.88-.176-1.468-.203V11.939c0-1.996-1.638-3.614-3.662-3.614H43.14c-.147-.805-.327-1.515-.56-1.955 0 0 3.735-4.132 4.321-6.253 0 0-.127-1.515-5.857 6.378l-.003 1.83H14.957c-2.022 0-3.662 1.618-3.662 3.614v9.458l-2.787 1.084s-.31 1.096 2.787.548v12.987c-3.078 3.528-7.543 8.72-8.016 9.692-.729 1.487-1.53 7.219-2.468 8.486 0 0 1.617.832 3.78-8.212l6.704-6.716v17.252c0 1.997 1.64 3.615 3.662 3.615H40.4l-7.794 9.138c-8.922 2.968-7.934 4.478-7.934 4.478 1.189-1.038 6.897-2.365 8.336-3.22 1.097-.647 7.62-7.313 10.611-10.396h12.539c.273.382.592.238.592.238l.051-.238h3.319c2.024 0 3.662-1.619 3.662-3.615v-29.48l1.595-.274c6.922-6.905 5.383-6.774 5.383-6.774zM48.587 9.458c2.103-.104 3.087-.18 3.22 1.438 0 0-3.14-.472-5.415.818 0 0 .09-2.158 2.195-2.256zM19.392 48.08c-.564-.468-.897-.819-.897-.819-.168-.377-.322-.746-.478-1.115-.438-.755-.732-1.51-.846-2.242-6.428-18.867 8.953-23.596 18.208-25.462.173 1.187 1.025 5.557 4.5 9.112l-.218-.166-16.288 24.508c-1.384-1.128-2.823-2.441-3.98-3.816zm8.919 7.354s-2.273-1.39-4.773-3.407l19.46-22.04c2.611 1.541 6.091 2.57 10.754 2.476 0 0 .02.314.045.135-.009 9.202-1.043 29.012-25.486 22.836zm26.671-24.378c-17.08.346-18.413-14.33-18.413-14.33 7.217-2.203 11.271.795 14.023 2.782 5.738 4.158 4.39 11.548 4.39 11.548zm2.14-8.698c-.737 2.526 2.004-.796-11.122-8.352l.146-.356s4.883-1.56 8.545 1.326c3.215 2.545 3.169 4.855 2.432 7.382zm2.268-1.466c.82-2.454-.273-5.399-.273-5.399 1.636-.197 1.75.77 2.077 2.823.32 2.055-1.804 2.576-1.804 2.576z" fill="#8A8A8E"/></svg>
